epam-assets/icon-sources/18/microsoft-teams-outline.svg

<svg width="18" height="18" viewBox="0 0 18 18" fill="none" xmlns="http://www.w3.org/2000/svg">
<path d="M14.3925 6.57749C14.1625 6.57749 13.9475 6.53499 13.7475 6.44999C13.5525 6.36499 13.38 6.24749 13.23 6.09749C13.08 5.94749 12.9625 5.77499 12.8775 5.57999C12.7925 5.37999 12.75 5.16499 12.75 4.93499C12.75 4.70999 12.7925 4.49749 12.8775 4.29749C12.9625 4.09749 13.08 3.92499 13.23 3.77999C13.38 3.62999 13.5525 3.51249 13.7475 3.42749C13.9475 3.33749 14.1625 3.29499 14.3925 3.29999C14.6175 3.29499 14.83 3.33749 15.03 3.42749C15.23 3.51249 15.405 3.62999 15.555 3.77999C15.7 3.92499 15.8175 4.09749 15.9075 4.29749C15.9925 4.49749 16.035 4.70999 16.035 4.93499C16.035 5.16499 15.9925 5.37999 15.9075 5.57999C15.8225 5.77499 15.705 5.94749 15.555 6.09749C15.405 6.24749 15.23 6.36499 15.03 6.44999C14.83 6.53499 14.6175 6.57749 14.3925 6.57749ZM14.3925 4.23749C14.1975 4.23749 14.025 4.30499 13.875 4.43999C13.75 4.57499 13.6875 4.73999 13.6875 4.93499C13.6875 5.12999 13.75 5.29749 13.875 5.43749C14.025 5.56249 14.1975 5.62499 14.3925 5.62499C14.5875 5.62499 14.7525 5.56249 14.8875 5.43749C15.0275 5.31249 15.0975 5.14499 15.0975 4.93499C15.0975 4.73999 15.0275 4.57499 14.8875 4.43999C14.7525 4.30499 14.5875 4.23749 14.3925 4.23749ZM16.5 7.74749V11.25C16.5 11.565 16.44 11.865 16.32 12.15C16.19 12.435 16.0225 12.6825 15.8175 12.8925C15.6025 13.1075 15.3525 13.275 15.0675 13.395C14.7725 13.52 14.47 13.5825 14.16 13.5825C13.97 13.5825 13.78 13.555 13.59 13.5C13.395 13.465 13.2175 13.4025 13.0575 13.3125C12.9375 13.7075 12.76 14.0675 12.525 14.3925C12.29 14.7175 12.015 14.995 11.7 15.225C11.385 15.455 11.0375 15.63 10.6575 15.75C10.2775 15.885 9.8825 15.9525 9.4725 15.9525C8.9925 15.9525 8.54 15.87 8.115 15.705C7.705 15.54 7.33 15.305 6.99 15C6.66 14.715 6.3875 14.375 6.1725 13.98C5.9525 13.58 5.81 13.145 5.745 12.675H2.1225C1.9575 12.675 1.81 12.6125 1.68 12.4875C1.56 12.3675 1.5 12.2225 1.5 12.0525V5.79749C1.5 5.62749 1.56 5.47999 1.68 5.35499C1.81 5.23499 1.9575 5.17499 2.1225 5.17499H7.5C7.355 4.87499 7.2825 4.56249 7.2825 4.23749C7.2825 3.93249 7.34 3.64499 7.455 3.37499C7.565 3.12499 7.72 2.89499 7.92 2.68499C8.12 2.48999 8.355 2.33499 8.625 2.21999C8.875 2.10499 9.155 2.04749 9.465 2.04749C9.77 2.04749 10.055 2.10499 10.32 2.21999C10.585 2.33499 10.8175 2.48999 11.0175 2.68499C11.2175 2.89499 11.3725 3.12499 11.4825 3.37499C11.5975 3.64499 11.655 3.93249 11.655 4.23749C11.655 4.53749 11.5975 4.82249 11.4825 5.09249C11.3725 5.35749 11.2175 5.58749 11.0175 5.78249C10.8175 5.98249 10.585 6.13999 10.32 6.25499C10.055 6.36999 9.77 6.42748 9.465 6.42748C9.39 6.42748 9.3125 6.42249 9.2325 6.41249C9.1575 6.40249 9.08 6.38999 9 6.37499V7.04998H15.795C15.99 7.04998 16.1575 7.11749 16.2975 7.25249C16.4325 7.38749 16.5 7.55249 16.5 7.74749ZM9.4725 2.99999C9.2975 2.99999 9.14 3.02749 9 3.08249C8.835 3.14749 8.695 3.23749 8.58 3.35249C8.47 3.46749 8.3825 3.59999 8.3175 3.74999C8.2525 3.90499 8.22 4.06749 8.22 4.23749C8.22 4.41249 8.2525 4.57499 8.3175 4.72499C8.3825 4.87499 8.47 5.00749 8.58 5.12249C8.695 5.23249 8.835 5.32249 9 5.39249C9.14 5.45749 9.2975 5.48999 9.4725 5.48999C9.6425 5.48999 9.8025 5.45749 9.9525 5.39249C10.1025 5.32249 10.235 5.23249 10.35 5.12249C10.465 5.00749 10.555 4.87499 10.62 4.72499C10.69 4.57499 10.725 4.41249 10.725 4.23749C10.725 4.06749 10.69 3.90499 10.62 3.74999C10.555 3.59999 10.465 3.46749 10.35 3.35249C10.235 3.23749 10.1025 3.14749 9.9525 3.08249C9.8025 3.02749 9.6425 2.99999 9.4725 2.99999ZM5.835 7.63499H7.245V6.46499H3.255V7.63499H4.665V11.385H5.835V7.63499ZM12.285 12.2025V7.98748H9V12.0525C9 12.2225 8.94 12.3675 8.82 12.4875C8.69 12.6125 8.5425 12.675 8.3775 12.675H6.69C6.755 13.01 6.8725 13.3225 7.0425 13.6125C7.2125 13.8975 7.4175 14.145 7.6575 14.355C7.8975 14.56 8.1725 14.7225 8.4825 14.8425C8.7875 14.9475 9.1175 15 9.4725 15C9.8575 15 10.22 14.9325 10.56 14.7975C10.9 14.6475 11.2 14.445 11.46 14.19C11.715 13.935 11.915 13.6375 12.06 13.2975C12.21 12.9575 12.285 12.5925 12.285 12.2025ZM15.5625 11.25V7.98748H13.2225V12.27C13.3475 12.395 13.49 12.49 13.65 12.555C13.8 12.615 13.97 12.645 14.16 12.645C14.355 12.645 14.5375 12.6075 14.7075 12.5325C14.8775 12.4575 15.025 12.3575 15.15 12.2325C15.28 12.1075 15.38 11.9575 15.45 11.7825C15.525 11.6125 15.5625 11.435 15.5625 11.25Z" fill="#6C6F80"/>
</svg>

<svg xmlns="http://www.w3.org/2000/svg" width="18" height="18" fill="none" viewBox="0 0 18 18">
  <path fill="#6C6F80" d="M14.393 6.577c-.23 0-.446-.042-.646-.127a1.668 1.668 0 0 1-.87-.87 1.632 1.632 0 0 1-.127-.645 1.613 1.613 0 0 1 .48-1.155c.15-.15.322-.268.518-.353.2-.09.415-.132.645-.127.224-.005.437.037.637.127a1.644 1.644 0 0 1 .878 2.153 1.668 1.668 0 0 1-.878.87 1.61 1.61 0 0 1-.637.127Zm0-2.34a.75.75 0 0 0-.518.203.702.702 0 0 0-.188.495c0 .195.063.362.188.502.15.125.322.188.518.188a.7.7 0 0 0 .494-.188.64.64 0 0 0 .21-.502c0-.195-.07-.36-.21-.495a.673.673 0 0 0-.495-.203Zm2.107 3.51v3.503c0 .315-.06.615-.18.9-.13.285-.297.532-.502.742a2.327 2.327 0 0 1-.75.503 2.305 2.305 0 0 1-.908.188c-.19 0-.38-.028-.57-.083a1.684 1.684 0 0 1-.533-.188 3.63 3.63 0 0 1-.532 1.08c-.235.325-.51.603-.825.833-.315.23-.662.405-1.042.525a3.718 3.718 0 0 1-2.543-.045A3.8 3.8 0 0 1 6.99 15a3.749 3.749 0 0 1-1.245-2.325H2.122a.622.622 0 0 1-.442-.188.593.593 0 0 1-.18-.434V5.796c0-.17.06-.317.18-.442.13-.12.278-.18.443-.18H7.5a2.178 2.178 0 0 1-.045-1.8c.11-.25.265-.48.465-.69.2-.195.435-.35.705-.465.25-.115.53-.173.84-.173.305 0 .59.058.855.173.265.115.498.27.697.465.2.21.356.44.466.69.114.27.172.557.172.862 0 .3-.057.585-.172.855a2.05 2.05 0 0 1-.466.69c-.2.2-.432.358-.697.473a2.124 2.124 0 0 1-1.088.157A4.465 4.465 0 0 1 9 6.375v.675h6.795c.195 0 .362.067.502.202a.67.67 0 0 1 .203.495ZM9.473 3c-.176 0-.333.027-.473.082a1.215 1.215 0 0 0-.42.27c-.11.115-.197.248-.262.398a1.248 1.248 0 0 0-.098.487c0 .175.032.338.098.488.065.15.152.282.262.397.115.11.255.2.42.27.14.065.297.098.473.098.17 0 .33-.033.48-.098a1.273 1.273 0 0 0 .667-.667c.07-.15.105-.313.105-.488 0-.17-.035-.332-.105-.487a1.273 1.273 0 0 0-.667-.668A1.383 1.383 0 0 0 9.473 3ZM5.835 7.635h1.41v-1.17h-3.99v1.17h1.41v3.75h1.17v-3.75Zm6.45 4.568V7.987H9v4.066a.59.59 0 0 1-.18.434.622.622 0 0 1-.443.188H6.69a2.952 2.952 0 0 0 .967 1.68c.24.205.515.367.825.487.306.105.636.158.99.158a2.92 2.92 0 0 0 1.088-.203 2.805 2.805 0 0 0 1.5-1.5c.15-.34.225-.704.225-1.094Zm3.277-.953V7.987h-2.34v4.283c.126.125.268.22.428.285.15.06.32.09.51.09.195 0 .377-.037.547-.112.17-.075.318-.175.443-.3.13-.126.23-.276.3-.45.075-.17.113-.348.113-.533Z"/>
</svg>
